X:130
T:O.S & S.H. Q.S.
S:American Veteran Fifer #130
C:Rudolph Burkhardt, Co.A.23rd Ky.V.V.I.
M:6/8
L:1/8
Q:1/8=300
K:D 
%%MIDI program 72
%%MIDI transpose 8
%%MIDI ratio 3 1
A | BAF DFA | BzBBzA | BAF dzd | c3 z2 c |
BGB dcB | ABc def | Bed cBc | d3 z2 :|
|: d | eze cBA | dze fzd | eze cBA | dze fzA |
BAB dcB | ABc dzf | efg ABc | d3 z2 :|



